images/dist/insta.svg

<svg width="27" height="30" viewBox="0 0 27 30" fill="none" xmlns="http://www.w3.org/2000/svg">
<g clip-path="url(#clip0_70_140)">
<path d="M13.1309 8.26172C9.4043 8.26172 6.39844 11.2676 6.39844 14.9941C6.39844 18.7207 9.4043 21.7266 13.1309 21.7266C16.8574 21.7266 19.8633 18.7207 19.8633 14.9941C19.8633 11.2676 16.8574 8.26172 13.1309 8.26172ZM13.1309 19.3711C10.7227 19.3711 8.75391 17.4082 8.75391 14.9941C8.75391 12.5801 10.7168 10.6172 13.1309 10.6172C15.5449 10.6172 17.5078 12.5801 17.5078 14.9941C17.5078 17.4082 15.5391 19.3711 13.1309 19.3711ZM21.709 7.98633C21.709 8.85937 21.0059 9.55664 20.1387 9.55664C19.2656 9.55664 18.5684 8.85352 18.5684 7.98633C18.5684 7.11914 19.2715 6.41602 20.1387 6.41602C21.0059 6.41602 21.709 7.11914 21.709 7.98633ZM26.168 9.58008C26.0684 7.47656 25.5879 5.61328 24.0469 4.07812C22.5117 2.54297 20.6484 2.0625 18.5449 1.95703C16.377 1.83398 9.87891 1.83398 7.71094 1.95703C5.61328 2.05664 3.75 2.53711 2.20898 4.07227C0.667969 5.60742 0.193359 7.4707 0.0878906 9.57422C-0.0351562 11.7422 -0.0351562 18.2402 0.0878906 20.4082C0.1875 22.5117 0.667969 24.375 2.20898 25.9102C3.75 27.4453 5.60742 27.9258 7.71094 28.0312C9.87891 28.1543 16.377 28.1543 18.5449 28.0312C20.6484 27.9316 22.5117 27.4512 24.0469 25.9102C25.582 24.375 26.0625 22.5117 26.168 20.4082C26.291 18.2402 26.291 11.748 26.168 9.58008ZM23.3672 22.7344C22.9102 23.8828 22.0254 24.7676 20.8711 25.2305C19.1426 25.916 15.041 25.7578 13.1309 25.7578C11.2207 25.7578 7.11328 25.9102 5.39062 25.2305C4.24219 24.7734 3.35742 23.8887 2.89453 22.7344C2.20898 21.0059 2.36719 16.9043 2.36719 14.9941C2.36719 13.084 2.21484 8.97656 2.89453 7.25391C3.35156 6.10547 4.23633 5.2207 5.39062 4.75781C7.11914 4.07227 11.2207 4.23047 13.1309 4.23047C15.041 4.23047 19.1484 4.07812 20.8711 4.75781C22.0195 5.21484 22.9043 6.09961 23.3672 7.25391C24.0527 8.98242 23.8945 13.084 23.8945 14.9941C23.8945 16.9043 24.0527 21.0117 23.3672 22.7344Z" fill="white"/>
</g>
<defs>
<clipPath id="clip0_70_140">
<rect width="26.25" height="30" fill="white"/>
</clipPath>
</defs>
</svg>

<svg width="27" height="30" fill="none" xmlns="http://www.w3.org/2000/svg"><g clip-path="url(#a)"><path d="M13.13 8.262a6.722 6.722 0 0 0-6.732 6.732 6.722 6.722 0 0 0 6.733 6.733 6.722 6.722 0 0 0 6.732-6.733 6.722 6.722 0 0 0-6.732-6.732Zm0 11.11a4.385 4.385 0 0 1-4.376-4.378 4.381 4.381 0 0 1 4.377-4.377 4.381 4.381 0 0 1 4.377 4.377 4.385 4.385 0 0 1-4.377 4.377Zm8.58-11.387c0 .873-.703 1.57-1.57 1.57a1.57 1.57 0 1 1 1.57-1.57Zm4.459 1.594c-.1-2.103-.58-3.967-2.121-5.502-1.535-1.535-3.399-2.016-5.502-2.121-2.168-.123-8.666-.123-10.834 0-2.098.1-3.961.58-5.502 2.115C.668 5.607.193 7.471.088 9.574c-.123 2.168-.123 8.666 0 10.834.1 2.104.58 3.967 2.121 5.502 1.541 1.535 3.398 2.016 5.502 2.121 2.168.123 8.666.123 10.834 0 2.103-.1 3.967-.58 5.502-2.12 1.535-1.536 2.015-3.4 2.121-5.503.123-2.168.123-8.66 0-10.828Zm-2.8 13.154a4.431 4.431 0 0 1-2.497 2.496c-1.728.686-5.83.528-7.74.528-1.91 0-6.018.152-7.74-.527a4.432 4.432 0 0 1-2.496-2.497c-.686-1.728-.528-5.83-.528-7.74 0-1.91-.152-6.017.528-7.74A4.431 4.431 0 0 1 5.39 4.758c1.728-.686 5.83-.528 7.74-.528 1.91 0 6.017-.152 7.74.528a4.431 4.431 0 0 1 2.496 2.496c.686 1.728.527 5.83.527 7.74 0 1.91.159 6.018-.527 7.74Z" fill="#fff"/></g><defs><clipPath id="a"><path fill="#fff" d="M0 0h26.25v30H0z"/></clipPath></defs></svg>
